icons/security-file-lock-2.svg

<svg fill="none" viewBox="0 0 24 24"><path stroke="currentColor" stroke-linecap="round" stroke-linejoin="round" stroke-width="2" d="M9.6 21.6h-2.4a3.6 3.6 0 0 1-3.6-3.6v-12a3.6 3.6 0 0 1 3.6-3.6h8.4a3.6 3.6 0 0 1 3.6 3.6v3m-4.2 6v-1.2a1.8 1.8 0 0 1 3.6 0v1.8m-3.6-8.4h-7.8m4.2 3.6h-4.2m2.4 3.6h-2.4m7.2 7.2h4.8a1.2 1.2 0 0 0 1.2-1.2v-3.6a1.2 1.2 0 0 0-1.2-1.2h-4.8a1.2 1.2 0 0 0-1.2 1.2v3.6a1.2 1.2 0 0 0 1.2 1.2Z"/></svg>

<svg fill="none" viewBox="0 0 24 24"><path stroke="currentColor" stroke-linecap="round" stroke-linejoin="round" stroke-width="2" d="M9.6 21.6H7.2A3.6 3.6 0 0 1 3.6 18V6a3.6 3.6 0 0 1 3.6-3.6h8.4A3.6 3.6 0 0 1 19.2 6v3M15 15v-1.2a1.8 1.8 0 0 1 3.6 0v1.8M15 7.2H7.2m4.2 3.6H7.2m2.4 3.6H7.2m7.2 7.2h4.8a1.2 1.2 0 0 0 1.2-1.2v-3.6a1.2 1.2 0 0 0-1.2-1.2h-4.8a1.2 1.2 0 0 0-1.2 1.2v3.6a1.2 1.2 0 0 0 1.2 1.2"/></svg>
